X:1
T:Liederkreis, Op.39
T:In der Fremde
T:Liederkreis, Op.39
T:1. In der Fremde (I)
T:Robert Schumann
T:Joseph von Eichendorff
T:OpenScore (CC0)
T:OpenScore (CC0)
C:Robert Schumann
Z:Joseph von Eichendorff
Z:OpenScore (CC0)
%%score 1 { ( 2 5 ) | ( 3 4 6 ) }
L:1/8
Q:1/4=72
M:4/4
K:A
V:1 treble nm="Voice"
V:2 treble nm="Piano"
V:5 treble 
V:3 bass 
V:4 bass 
V:6 bass 
V:1
"^Nicht schnell." z4 z2!p! F G | A3 A A2 G F | G3 G G2 G2 | A2 A A{GA} (B2 A) G | F4 z2!pp! F G | %5
w: Aus der|Hei- math hin- ter den|Bli- tzen roth da|kom- men die Wol- * ken|her. A- ber|
 A2 A A A2 G F | A3 G G2 G2 | A2 A A{GA} (B2 A) G | F4 z2 z F | B2 F F B2 E E | c3 B B2 B2 | %11
w: Va- ter und Mut- ter sind|lan- ge todt, es|kennt mich dort Kei- * ner|mehr. Wie|bald, ach wie bald kommt die|stil- le Zeit, da|
 c4 B3 B | e6 d2 | c4 B3 B | ^A4 z2 (Bc) | d3 d d2 c B | d4 c4 | d4 c3 c | (B4 =A2) z A | %19
w: ru- he ich|auch, da|ru- he ich|auch und *|ü- ber mir rauscht die|schö- ne|Wald- ein- sam-|keit, _ die|
 A3 A G2 G G | F4 z2 F2 | =G3 G{GA} B2 A G | F4 z2 F2 | =G3 G d2 B G | F4 z4 | z8 | z8 | %27
w: schö- ne Wald- ein- sam-|keit, und|Kei- ner kennt mich mehr|hier, und|Kei- ner kennt mich mehr|hier.|||
 !fermata!z8 |] %28
w: |
V:2
!p! x2 !>!F/ x/ x x2 !>!F/ x/ x | x2 !>![FA]/ x/ x x2 !>![FA]/ x/ x | %2
 x2 !>![CG]/ x/ x x2 !>![CG]/ x/ x | x2 !>![CFA]/ x/ x x2 !>![C^EG]/ x/ x | %4
 x2 !>![CF]/ x/ x!pp! x2 [CF]/ x/ x | x2 [CF]/ x/ x x2 F/ x/ x | x2 [^EA]/ x/ x x2 [EG]/ x/ x | %7
 x2 [CFA]/ x/ x x2 [C^EG]/ x/ x | x2 [CF]/ x/ x x2 [CF]/ x/ x | %9
 x2!<(! (B2!<)!!p!!>(! f2!>)!!pp! B2- | (B2)!<(! B2!<)!!p!!>(! f2!>)!!pp! B2- | B2) c4 B2- | %12
 B2 (e4 d2) | (c4 B4 | ^A6) (Bc) | x2 !arpeggio![FBd]/ x/ x x2 !arpeggio![FBd]/ x/ x | %16
 x2 !arpeggio![=G^Ad]/ x/ x x2 !arpeggio![GAc]/ x/ x | x2 [FBd]/ x/ x x2 [F^Ac]/ x/ x | %18
 x2 [DFB]/ x/ x x2 [DF=A]/ x/ x | x2 [FA]/ x/ x x2 [B,C^EG]/ x/ x | x2 [CF]/ x/ x x2 [CF]/ x/ x | %21
 x2 [D=G]/ x/ x x2 [D^E]/ x/ x | x2 [CF]/ x/ x x2 [CF]/ x/ x | x2 [D=G]/ x/ x x2 [D^E]/ x/ x | %24
 z2 (F2 d2 B=G | F2)!>(! (C2 F2 DB, | C2) (C2 F2 C2) | !fermata![A,F]8!>)! |] %28
V:3
!ped! (F,,/C,/F,/A,/)[I:staff -1] (F/[I:staff +1]A,/F,/C,/) (F,,/C,/F,/A,/)[I:staff -1] (F/[I:staff +1]A,/F,/C,/) | %1
 (F,,/C,/F,/A,/)[I:staff -1] (F/[I:staff +1]A,/F,/C,/) (F,,/C,/F,/A,/)[I:staff -1] (F/[I:staff +1]A,/F,/C,/)!ped-up! | %2
!ped! (C,,/C,/^E,/G,/)[I:staff -1] (C/[I:staff +1]G,/E,/C,/) (C,,/C,/E,/G,/)[I:staff -1] (C/[I:staff +1]G,/E,/C,/)!ped-up! | %3
!ped! (F,,/C,/F,/A,/)[I:staff -1] (C/[I:staff +1]A,/F,/C,/)!ped-up!!ped! (C,,/C,/^E,/G,/)[I:staff -1] ([B,C]/[I:staff +1]G,/E,/C,/)!ped-up! | %4
!ped!!>(! (F,,/C,/F,/A,/)[I:staff -1] (C/[I:staff +1]A,/F,/C,/)!ped-up!!ped! (F,,/!>)!C,/F,/A,/)[I:staff -1] (C/[I:staff +1]A,/F,/C,/) | %5
 (F,,/C,/F,/A,/)[I:staff -1] (C/[I:staff +1]A,/F,/C,/)!ped-up!!ped! (^B,,/^D,/F,/A,/)[I:staff -1] (^D/[I:staff +1]A,/F,/D,/)!ped-up! | %6
!ped! (B,,/=D,/^E,/A,/)[I:staff -1] (=D/[I:staff +1]A,/E,/D,/)!ped-up!!ped! (B,,/D,/E,/D/)[I:staff -1] (E/[I:staff +1]D/E,/D,/)!ped-up! | %7
!ped! (A,,/C,/F,/A,/)[I:staff -1] (C/[I:staff +1]A,/F,/C,/)!ped-up!!ped! (C,,/C,/^E,/G,/)[I:staff -1] (B,/[I:staff +1]G,/E,/C,/)!ped-up! | %8
!ped! (F,,/C,/F,/A,/)[I:staff -1] (C/[I:staff +1]A,/F,/C,/) (F,,/C,/F,/A,/)[I:staff -1] (C/[I:staff +1]A,/F,/A,/)!ped-up! | %9
!ped! (^D,/A,/B,/F/)[I:staff -1] (B/[I:staff +1]F/B,/A,/)!ped-up!!ped! (E,/A,/B,/E/)[I:staff -1] (B/[I:staff +1]E/B,/A,/)!ped-up! | %10
!ped! (F,/A,/B,/^D/)[I:staff -1] (B/[I:staff +1]D/B,/A,/)!ped-up!!ped! (^D,/A,/B,/F/)[I:staff -1] (B/[I:staff +1]F/B,/A,/)!ped-up! | %11
!ped! (E,/A,/C/E/)[I:staff -1] (c/[I:staff +1]E/C/A,/)!ped-up!!ped! (D,/G,/B,/E/)[I:staff -1] (B/[I:staff +1]E/B,/G,/)!ped-up! | %12
!ped! (C,/E,/A,/E/)!ped-up! z/!ped! (E/A,/E,/) (C,/A,/E/[I:staff -1]A/)[I:staff +1] (F,/A,/D/[I:staff -1]A/)!ped-up! | %13
!ped![I:staff +1] (E,/A,/C/[I:staff -1]=G/) (A/G/[I:staff +1]E/A,/)!ped-up!!ped! (D,/=G,/B,/E/)[I:staff -1] (G/[I:staff +1]E/B,/G,/)!ped-up! | %14
!ped! (C,/F,/^A,/[I:staff -1]E/) (F/E/[I:staff +1]A,/F,/) (F,,/F,/A,/E/)[I:staff -1] (F/[I:staff +1]E/A,/F,/)!ped-up! | %15
!ped! (B,,/F,/B,/D/)[I:staff -1] (F/[I:staff +1]D/B,/F,/) (D,/F,/B,/D/)[I:staff -1] (F/[I:staff +1]D/B,/F,/)!ped-up! | %16
!ped! (E,/=G,/^A,/D/)[I:staff -1] (=G/[I:staff +1]D/A,/G,/) (E,/G,/A,/C/)[I:staff -1] (G/[I:staff +1]C/A,/G,/)!ped-up! | %17
!ped! (D,/F,/B,/D/)[I:staff -1] (F/[I:staff +1]D/B,/F,/)!ped-up!!ped! (F,,/F,/^A,/C/)[I:staff -1] (E/[I:staff +1]C/A,/F,/)!ped-up! | %18
!ped! (B,,/D,/F,/B,/)[I:staff -1] (D/[I:staff +1]B,/F,/D,/)!ped-up!!ped! (^B,,/^D,/F,/=A,/)[I:staff -1] (^D/[I:staff +1]A,/F,/D,/)!ped-up! | %19
!ped! (C,/F,/A,/C/)[I:staff -1] (F/[I:staff +1]C/A,/F,/)!ped-up!!ped! (C,,/C,/^E,/G,/)[I:staff -1] (B,/[I:staff +1]G,/E,/C,/)!ped-up! | %20
!ped! (F,,/C,/F,/A,/)[I:staff -1] (C/[I:staff +1]A,/F,/C,/)!ped-up!!ped! (F,,/=E,/F,/^A,/)[I:staff -1] (C/[I:staff +1]A,/F,/E,/)!ped-up! | %21
!ped! (F,,/D,/=G,/B,/)[I:staff -1] (D/[I:staff +1]B,/G,/D,/)!ped-up!!ped! (F,,/D,/^E,/B,/)[I:staff -1] (D/[I:staff +1]B,/E,/D,/)!ped-up! | %22
!ped! (F,,/C,/F,/^A,/)[I:staff -1] (C/[I:staff +1]A,/F,/C,/)!ped-up!!ped! (F,,/=E,/F,/A,/)[I:staff -1] (C/[I:staff +1]A,/F,/E,/)!ped-up! | %23
!ped! ((F,,/D,/=G,/B,/))[I:staff -1] ((D/[I:staff +1]B,/G,/D,/))!ped-up!!ped! ((F,,/D,/^E,/B,/))[I:staff -1] ((D/[I:staff +1]B,/E,/D,/))!ped-up! | %24
!ped! (F,,/C,/F,/^A,/)[I:staff -1] (C/[I:staff +1]A,/F,/C,/)!ped-up!!ped! (F,,/D,/^E,/B,/)[I:staff -1] ([D^E]/[I:staff +1]B,/E,/D,/)!ped-up! | %25
!ped! (F,,/C,/F,/^A,/)[I:staff -1] (C/[I:staff +1]A,/F,/C,/) (F,,/D,/F,/B,/)!ped!!ped-up![I:staff -1] (D/[I:staff +1]B,/^E,/D,/)!ped-up! | %26
!ped! (F,,/C,/F,/ ^A,/)[I:staff -1] (C/^A,/[I:staff +1]F,/C,/)[I:staff -1] (F/A,/[I:staff +1]F,/C,/)[I:staff -1] C/A,/[I:staff +1]F,/-C,/- | %27
 !fermata![F,,C,F,]8!ped-up! |] %28
V:4
 x8 | x8 | x8 | x8 | x8 | x4 ^B,,4 | =B,,4 B,,4 | A,,4 x4 | x8 | ^D,2 x2 =E,2 x2 | F,2 x2 ^D,2 x2 | %11
 E,2 x2 =D,2 x2 | C,4 C,2 F,2 | E,4 D,4 | C,4 x4 | x8 | x8 | x8 | x8 | x4 x4 | x4 x4 | x4 x4 | %22
 x4 x4 | x4 x4 | x4 x4 | x4 x4 | x6 x F, | x8 |] %28
V:5
 x8 | x8 | x8 | x8 | x8 | x8 | x8 | x8 | x8 | x8 | x8 | x8 | x8 | x8 | x8 | x8 | x8 | x8 | x8 | %19
 x8 | x8 | x8 | x8 | x8 | x8 | x8 | x6 x/ ^A,3/2- | x8 |] %28
V:6
 x8 | x8 | x8 | x8 | x8 | x8 | x8 | x8 | x8 | x8 | x8 | x8 | x8 | x8 | x8 | x8 | x8 | x8 | x8 | %19
 x8 | x8 | x8 | x8 | x8 | x8 | x8 | F,,8 | x8 |] %28

